icons/mobile/20/svg/night-mode-20.svg

<svg width="20" height="20" viewBox="0 0 20 20" fill="none" xmlns="http://www.w3.org/2000/svg">
<path fill-rule="evenodd" clip-rule="evenodd" d="M8.97578 3.58806C9.40078 3.46906 9.84431 3.58091 10.1623 3.88591C10.4821 4.19385 10.6128 4.63471 10.5109 5.06657C10.4179 5.46156 10.3713 5.8658 10.3713 6.26579C10.3713 8.82579 12.1923 11.0309 14.7023 11.5099C15.0692 11.5919 15.4245 11.6338 15.7814 11.6398C16.2243 11.6469 16.6201 11.8819 16.84 12.2687C17.058 12.6516 17.0559 13.1085 16.8361 13.4894C16.5662 13.9583 16.2402 14.3925 15.8684 14.7834C14.5684 16.2114 12.7639 17.0011 10.8439 17.0011L10.843 17.0002C10.6 17.0002 10.3546 16.9871 10.1086 16.9621C6.8078 16.6169 4.18596 13.8532 4.00996 10.5324C3.84018 7.31668 5.8821 4.46212 8.97578 3.58806ZM8.96114 5.16911C6.78515 5.98012 5.38301 8.0923 5.50801 10.4533C5.64323 13.002 7.7321 15.2058 10.2639 15.4699C11.9728 15.6549 13.6177 15.0267 14.7717 13.7619C14.9657 13.5569 15.1411 13.3404 15.2971 13.1154C14.9941 13.0904 14.6927 13.0447 14.3977 12.9787C11.2049 12.3685 8.87129 9.54167 8.87129 6.26481C8.87129 5.89991 8.90115 5.53303 8.96211 5.16813L8.96114 5.16911Z" fill="black"/>
</svg>

<!-- This Source Code Form is subject to the terms of the Mozilla Public
   - License, v. 2.0. If a copy of the MPL was not distributed with this
   - file, You can obtain one at http://mozilla.org/MPL/2.0/. -->
<svg xmlns="http://www.w3.org/2000/svg" width="20" height="20" fill="none" viewBox="0 0 20 20">
    <path fill="#000" fill-rule="evenodd" d="M8.976 3.588a1.22 1.22 0 0 1 1.186.298c.32.308.45.749.349 1.18-.093.396-.14.8-.14 1.2a5.34 5.34 0 0 0 4.331 5.244c.367.082.723.124 1.08.13a1.23 1.23 0 0 1 1.058.629c.218.383.216.84-.004 1.22-.27.47-.596.903-.968 1.294a6.75 6.75 0 0 1-5.024 2.218h-.001a7 7 0 0 1-.734-.039c-3.301-.345-5.923-3.109-6.099-6.43a6.8 6.8 0 0 1 4.966-6.944M8.96 5.17a5.31 5.31 0 0 0-3.453 5.284c.135 2.549 2.224 4.753 4.756 5.017a5.28 5.28 0 0 0 4.508-1.708q.292-.308.525-.647a7 7 0 0 1-.9-.136c-3.192-.61-5.526-3.437-5.526-6.714q0-.548.091-1.097z" clip-rule="evenodd" />
</svg>
